public/avatar/shoe/145.svg

<svg xmlns:xlink="http://www.w3.org/1999/xlink" height="38.3" width="36.05" xmlns="http://www.w3.org/2000/svg"><use height="17.6" transform="translate(11.7 10.95)" width="20.15" xlink:href="#a"/><defs><g id="a"><path d="M5.25-1.35Q6.5-.8 6.5.3l-.25 1.25v.65l-.4.7Q5.1 4.6 2.7 7.4q-1.2 1.25-4 .9l-4.4-1.35-1.6-.75-1.35-.85.15-.15q-.75-.5.6-1.85l1.25-1.45 1.4-1.75L-2.7-1.9q2.55-1.95 4.15-1.4l3.8 1.95" fill="#fff" fill-rule="evenodd" transform="translate(12.1 3.9)"/><path d="M5.25-1.35Q6.5-.8 6.5.3l-.25 1.25v.65l-.4.7Q5.1 4.6 2.7 7.4q-1.2 1.25-4 .9l-4.4-1.35-1.6-.75q-1.2-.55-1.2-1-.75-.5.6-1.85l1.25-1.45 1.4-1.75L-2.7-1.9q2.55-1.95 4.15-1.4l3.8 1.95Z" fill="none" stroke="#050000" stroke-linecap="round" stroke-linejoin="round" transform="translate(12.1 3.9)"/><path d="M7.1 1.8q0 .6.45 1.65l.2 1.1q-.15 1.05.3 3.15-.25 1.2-1.2 1.6l-1.8-.2q-.75 2.75-3.35 3.75-3.5 1.3-9.9.6-2.45-.3-3.6-3.3-.85-2.45.55-3.7l1.7-2.15L-.2 6.45q3.45 0 5.45-6.75L7.1 1.8" fill-rule="evenodd" transform="translate(12.1 3.9)"/><path d="m1.55 11.7-5.05.75-5-.15q-1.7-.4-2.4-2.2-.6-1.7.15-2.8l.8-1.35q.7-1.3 4.25.2 4.25 1.75 6.9.75 3.9-1.55 4.4-8.1l1.6 5.3q.75 2.35-.2 3.8-.4.55-1.65.55l-.9-1.05q-.1 3.25-2.9 4.3" fill="#b50606" fill-rule="evenodd" transform="translate(12.1 3.9)"/><path d="m.25 4.6-1.65-.5-3.5-.8-3.55-.4q.15-.6 1.3-1.35l2-.15 4.75.8q1.45.4 4.2 1.9 1.05.6 1.2 1.35.1.6-.45 1.5L4.2 6.6l-.7-.4-1.45-.85-1.8-.75" fill-rule="evenodd" transform="translate(12.1 3.9)"/><path d="M2.35 5.15q-1-.6-3.05-1.1-4.25-1.35-7.05-1.4.3-1.5 3.2-.8l4.4.8q2.5.7 3.75 1.65.9.55 1 1.05l-.3 1v.05L2.35 5.15" fill="#b50606" fill-rule="evenodd" transform="translate(12.1 3.9)"/><path d="m-2.4 6.8 1 .35.45.4.4 1.15v.25L-1 8.3q-.25-.45-1.15-.95l-.8-.3-.35-.2-1.1-.3-.25-.15.4-.1 1.85.5" fill-rule="evenodd" transform="translate(12.1 3.9)"/><path d="M-6.4 7.45q-1.4 0-1.75.45-.8.8-.1 1.65l.25.3.25.2.05.4-.1.25H-8l-.55-.3-.4-.2-.8-.85-.3-.7-.15-.75q0-.8.4-1.2.35-.35 1-.35l1.35.1 2.75.85-.7.1-1 .05" fill="#e51a1a" fill-rule="evenodd" transform="translate(12.1 3.9)"/><path d="m-8 7.05-.65.75-.35.85-.25.2V8.8l-.45-.45q-.2-.45 0-.9l.5-.55.3-.05h.5q.45 0 .4.2" fill="#f75e5e" fill-rule="evenodd" transform="translate(12.1 3.9)"/></g></defs></svg>

<?xml version="1.0" encoding="UTF-8" standalone="no"?>
<svg xmlns:xlink="http://www.w3.org/1999/xlink" height="38.3px" width="36.05px" xmlns="http://www.w3.org/2000/svg">
  <g transform="matrix(1.0, 0.0, 0.0, 1.0, 23.8, 14.85)">
    <use height="17.6" transform="matrix(1.0, 0.0, 0.0, 1.0, -12.1, -3.9)" width="20.15" xlink:href="#shape0"/>
  </g>
  <defs>
    <g id="shape0" transform="matrix(1.0, 0.0, 0.0, 1.0, 12.1, 3.9)">
      <path d="M5.25 -1.35 Q6.5 -0.8 6.5 0.3 L6.25 1.55 6.25 2.2 5.85 2.9 Q5.1 4.6 2.7 7.4 1.5 8.65 -1.3 8.3 L-5.7 6.95 -7.3 6.2 -8.65 5.35 -8.5 5.2 Q-9.25 4.7 -7.9 3.35 L-6.65 1.9 -5.25 0.15 -2.7 -1.9 Q-0.15 -3.85 1.45 -3.3 L5.25 -1.35" fill="#ffffff" fill-rule="evenodd" stroke="none"/>
      <path d="M5.25 -1.35 Q6.5 -0.8 6.5 0.3 L6.25 1.55 6.25 2.2 5.85 2.9 Q5.1 4.6 2.7 7.4 1.5 8.65 -1.3 8.3 L-5.7 6.95 -7.3 6.2 Q-8.5 5.65 -8.5 5.2 -9.25 4.7 -7.9 3.35 L-6.65 1.9 -5.25 0.15 -2.7 -1.9 Q-0.15 -3.85 1.45 -3.3 L5.25 -1.35 Z" fill="none" stroke="#050000" stroke-linecap="round" stroke-linejoin="round" stroke-width="1.0"/>
      <path d="M7.1 1.8 Q7.1 2.4 7.55 3.45 L7.75 4.55 Q7.6 5.6 8.05 7.7 7.8 8.9 6.85 9.3 L5.05 9.1 Q4.3 11.85 1.7 12.85 -1.8 14.15 -8.2 13.45 -10.65 13.15 -11.8 10.15 -12.65 7.7 -11.25 6.45 L-9.55 4.3 -0.2 6.45 Q3.25 6.45 5.25 -0.3 L7.1 1.8" fill="#000000" fill-rule="evenodd" stroke="none"/>
      <path d="M1.55 11.7 L-3.5 12.45 -8.5 12.3 Q-10.2 11.9 -10.9 10.1 -11.5 8.4 -10.75 7.3 L-9.95 5.95 Q-9.25 4.65 -5.7 6.15 -1.45 7.9 1.2 6.9 5.1 5.35 5.6 -1.2 L7.2 4.1 Q7.95 6.45 7.0 7.9 6.6 8.45 5.35 8.45 L4.45 7.4 Q4.35 10.65 1.55 11.7" fill="#b50606" fill-rule="evenodd" stroke="none"/>
      <path d="M0.25 4.6 L-1.4 4.1 -4.9 3.3 -8.45 2.9 Q-8.3 2.3 -7.15 1.55 L-5.15 1.4 -0.4 2.2 Q1.05 2.6 3.8 4.1 4.85 4.7 5.0 5.45 5.1 6.05 4.55 6.95 L4.2 6.6 3.5 6.2 2.05 5.35 0.25 4.6" fill="#000000" fill-rule="evenodd" stroke="none"/>
      <path d="M2.35 5.15 Q1.35 4.55 -0.7 4.05 -4.95 2.7 -7.75 2.65 -7.45 1.15 -4.55 1.85 L-0.15 2.65 Q2.35 3.35 3.6 4.3 4.5 4.85 4.6 5.35 L4.3 6.35 4.3 6.4 2.35 5.15" fill="#b50606" fill-rule="evenodd" stroke="none"/>
      <path d="M-2.4 6.8 L-1.4 7.15 -0.95 7.55 -0.55 8.7 -0.55 8.95 -1.0 8.3 Q-1.25 7.85 -2.15 7.35 L-2.95 7.05 -3.3 6.85 -4.4 6.55 -4.65 6.4 -4.25 6.3 -2.4 6.8" fill="#000000" fill-rule="evenodd" stroke="none"/>
      <path d="M-6.4 7.45 Q-7.8 7.45 -8.15 7.9 -8.95 8.7 -8.25 9.55 L-8.0 9.85 -7.75 10.05 -7.7 10.45 -7.8 10.7 -8.0 10.7 -8.55 10.4 -8.95 10.2 -9.75 9.35 -10.05 8.65 -10.2 7.9 Q-10.2 7.1 -9.8 6.7 -9.45 6.35 -8.8 6.35 L-7.45 6.45 -4.7 7.3 -5.4 7.4 -6.4 7.45" fill="#e51a1a" fill-rule="evenodd" stroke="none"/>
      <path d="M-8.0 7.05 L-8.65 7.8 -9.0 8.65 -9.25 8.85 -9.25 8.8 -9.7 8.35 Q-9.9 7.9 -9.7 7.45 L-9.2 6.9 -8.9 6.85 -8.4 6.85 Q-7.95 6.85 -8.0 7.05" fill="#f75e5e" fill-rule="evenodd" stroke="none"/>
    </g>
  </defs>
</svg>
